resources/svg/forward-ten.svg

<svg xmlns="http://www.w3.org/2000/svg" viewBox="0 0 24 24" fill="currentColor"><path fill="none" stroke="currentColor" stroke-width="2" d="M20.8888889,7.55555556 C19.3304485,4.26701301 15.9299689,2 12,2 C6.4771525,2 2,6.4771525 2,12 C2,17.5228475 6.4771525,22 12,22 L12,22 C17.5228475,22 22,17.5228475 22,12 M22,4 L22,8 L18,8 M9,16 L9,9 L7,9.53333333 M17,12 C17,10 15.9999999,8.5 14.5,8.5 C13.0000001,8.5 12,10 12,12 C12,14 13,15.5000001 14.5,15.5 C16,15.4999999 17,14 17,12 Z M14.5,8.5 C16.9253741,8.5 17,11 17,12 C17,13 17,15.5 14.5,15.5 C12,15.5 12,13 12,12 C12,11 12.059,8.5 14.5,8.5 Z"/></svg>

<svg viewBox="0 0 24 24"><path fill="none" stroke="currentColor" stroke-width="2" d="M20.889 7.556C19.33 4.267 15.93 2 12 2C6.477 2 2 6.477 2 12s4.477 10 10 10h0c5.523 0 10-4.477 10-10m0-8v4h-4m-9 8V9l-2 .533M17 12c0-2-1-3.5-2.5-3.5S12 10 12 12s1 3.5 2.5 3.5S17 14 17 12zm-2.5-3.5C16.925 8.5 17 11 17 12s0 3.5-2.5 3.5S12 13 12 12s.059-3.5 2.5-3.5z"/></svg>
